src/images/global/icons/utility/shield.svg

<?xml version="1.0" encoding="UTF-8"?>
<svg width="48px" height="48px" viewBox="0 0 48 48" version="1.1" xmlns="http://www.w3.org/2000/svg" xmlns:xlink="http://www.w3.org/1999/xlink">
    <!-- Generator: Sketch 46.2 (44496) - http://www.bohemiancoding.com/sketch -->
    <title>icon/Utility/shield</title>
    <desc>Created with Sketch.</desc>
    <defs>
        <path d="M10,24 C0.606060606,21.1428571 3.73034936e-14,14.2886294 3.73034936e-14,14.2886294 L0,0 L9.20159151,0 L20,0 L20,14.2886294 C20,14.2886294 19.3939394,21.1428571 10,24 Z M6.8906644,10.7258676 C6.14812474,10.1805971 5.09471691,10.3279401 4.53781217,11.0549674 C3.98090742,11.7819948 4.13139425,12.8133959 4.87393391,13.3586664 L8.23515139,15.8269153 C8.98214448,16.375456 10.042606,16.2226344 10.5965005,15.4866244 L16.4786311,7.67050302 C17.0292234,6.93888104 16.8698151,5.90876555 16.1225827,5.36967567 C15.3753504,4.83058579 14.3232556,4.9866639 13.7726634,5.71828588 L8.89595265,12.1984145 L6.8906644,10.7258676 Z" id="path-1"></path>
    </defs>
    <g id="Symbols" stroke="none" stroke-width="1" fill="none" fill-rule="evenodd">
        <g id="icon/Utility/shield">
            <g id="Icon" transform="translate(14.000000, 12.000000)">
                <mask id="mask-2" fill="white">
                    <use xlink:href="#path-1"></use>
                </mask>
                <use id="Mask" fill="#384048" xlink:href="#path-1"></use>
                <g id="Color/Grayscale/Night-Sky" mask="url(#mask-2)" fill="#111111">
                    <g transform="translate(-14.000000, -12.000000)" id="Swatch">
                        <rect x="0" y="0" width="48" height="48"></rect>
                    </g>
                </g>
            </g>
        </g>
    </g>
</svg>

<?xml version="1.0" encoding="utf-8"?>
<!-- Generator: Adobe Illustrator 21.0.2, SVG Export Plug-In . SVG Version: 6.00 Build 0)  -->
<svg version="1.1" id="icon_x2F_Utility_x2F_shield-Layer_1" xmlns="http://www.w3.org/2000/svg" xmlns:xlink="http://www.w3.org/1999/xlink" x="0px" y="0px"
	 viewBox="0 0 48 48" style="enable-background:new 0 0 48 48;" xml:space="preserve">
<title>icon/Utility/shield</title>
<desc>Created with Sketch.</desc>
<g id="icon_x2F_Utility_x2F_shield-Symbols">
	<g id="icon_x2F_Utility_x2F_shield">
		<g id="icon_x2F_Utility_x2F_shield-Icon" transform="translate(14.000000, 12.000000)">
			<g id="icon_x2F_Utility_x2F_shield-Mask">
				<path id="icon_x2F_Utility_x2F_shield-path-1_1_" style="fill:#384048;" d="M10,24c-9.4-2.9-10-9.7-10-9.7V0h9.2H20v14.3C20,14.3,19.4,21.1,10,24z M6.9,10.7
					c-0.7-0.5-1.8-0.4-2.4,0.3c-0.6,0.7-0.4,1.8,0.3,2.3l3.4,2.5c0.7,0.5,1.8,0.4,2.4-0.3l5.9-7.8c0.6-0.7,0.4-1.8-0.4-2.3
					c-0.7-0.5-1.8-0.4-2.3,0.3l-4.9,6.5L6.9,10.7z"/>
			</g>
			<defs>
				<filter id="icon_x2F_Utility_x2F_shield-Adobe_OpacityMaskFilter" filterUnits="userSpaceOnUse" x="-14" y="-12" width="48" height="48">
					<feColorMatrix  type="matrix" values="1 0 0 0 0  0 1 0 0 0  0 0 1 0 0  0 0 0 1 0"/>
				</filter>
			</defs>
			<mask maskUnits="userSpaceOnUse" x="-14" y="-12" width="48" height="48" id="icon_x2F_Utility_x2F_shield-mask-2">
				<g style="filter:url(#icon_x2F_Utility_x2F_shield-Adobe_OpacityMaskFilter);">
					<path id="icon_x2F_Utility_x2F_shield-path-1" style="fill:#FFFFFF;" d="M10,24c-9.4-2.9-10-9.7-10-9.7V0h9.2H20v14.3C20,14.3,19.4,21.1,10,24z M6.9,10.7
						c-0.7-0.5-1.8-0.4-2.4,0.3c-0.6,0.7-0.4,1.8,0.3,2.3l3.4,2.5c0.7,0.5,1.8,0.4,2.4-0.3l5.9-7.8c0.6-0.7,0.4-1.8-0.4-2.3
						c-0.7-0.5-1.8-0.4-2.3,0.3l-4.9,6.5L6.9,10.7z"/>
				</g>
			</mask>
			<g id="icon_x2F_Utility_x2F_shield-Color_x2F_Grayscale_x2F_Night-Sky" style="mask:url(#icon_x2F_Utility_x2F_shield-mask-2);">
				<g id="icon_x2F_Utility_x2F_shield-Swatch" transform="translate(-14.000000, -12.000000)">
					<rect style="fill:#111111;" width="48" height="48"/>
				</g>
			</g>
		</g>
	</g>
</g>
</svg>
